build/img/icons/marker.svg

<svg width="16" height="20" viewBox="0 0 16 20" xmlns="http://www.w3.org/2000/svg">
  <path
    fill="#656663" d="M7.99996 0C4.00601 0 0.756714 3.2493 0.756714 7.2432C0.756714 12.1998 7.23871 19.4763 7.51468 19.7836C7.7739 20.0723 8.22648 20.0718 8.48523 19.7836C8.76121 19.4763 15.2432 12.1998 15.2432 7.2432C15.2431 3.2493 11.9939 0 7.99996 0ZM7.99996 18.3488C5.81843 15.7575 2.06109 10.645 2.06109 7.24328C2.06109 3.96852 4.72523 1.30438 7.99996 1.30438C11.2747 1.30438 13.9388 3.96852 13.9388 7.24324C13.9388 10.6451 10.182 15.7566 7.99996 18.3488Z"/>
  <path
    fill="#656663" d="M8.00005 3.59912C5.9906 3.59912 4.35583 5.23393 4.35583 7.24338C4.35583 9.25283 5.99064 10.8876 8.00005 10.8876C10.0095 10.8876 11.6442 9.25283 11.6442 7.24338C11.6442 5.23393 10.0095 3.59912 8.00005 3.59912ZM8.00005 9.58326C6.70981 9.58326 5.66021 8.53361 5.66021 7.24338C5.66021 5.95315 6.70985 4.9035 8.00005 4.9035C9.29024 4.9035 10.3399 5.95315 10.3399 7.24338C10.3399 8.53361 9.29024 9.58326 8.00005 9.58326Z"/>
</svg>

<svg width="16" height="20" viewBox="0 0 16 20" xmlns="http://www.w3.org/2000/svg"><path fill="#656663" d="M8 0C4.006 0 .757 3.25.757 7.243c0 4.957 6.482 12.233 6.758 12.54a.65.65 0 00.97 0c.276-.307 6.758-7.583 6.758-12.54C15.243 3.25 11.993 0 8 0zm0 18.349c-2.182-2.591-5.939-7.704-5.939-11.106A5.946 5.946 0 018 1.304a5.946 5.946 0 015.939 5.94c0 3.401-3.757 8.513-5.939 11.105z"/><path fill="#656663" d="M8 3.6a3.648 3.648 0 00-3.644 3.643A3.648 3.648 0 008 10.888a3.648 3.648 0 003.644-3.645A3.648 3.648 0 008 3.6zm0 5.983c-1.29 0-2.34-1.05-2.34-2.34 0-1.29 1.05-2.34 2.34-2.34 1.29 0 2.34 1.05 2.34 2.34 0 1.29-1.05 2.34-2.34 2.34z"/></svg>
